src/assets/filled/ToggleOffCircle.svg

<svg width="24" height="24" viewBox="0 0 24 24"  xmlns="http://www.w3.org/2000/svg">
<path d="M13.86 3.86035H10.14C5.65 3.86035 2 7.51035 2 12.0004C2 16.4904 5.65 20.1404 10.14 20.1404H13.86C18.35 20.1404 22 16.4904 22 12.0004C22 7.51035 18.35 3.86035 13.86 3.86035ZM10.14 16.4204C7.7 16.4204 5.72 14.4404 5.72 12.0004C5.72 9.56035 7.7 7.58035 10.14 7.58035C12.58 7.58035 14.56 9.56035 14.56 12.0004C14.56 14.4404 12.58 16.4204 10.14 16.4204Z" />
</svg>

<?xml version="1.0" encoding="UTF-8"?>
<svg width="24" height="24" viewBox="0 0 24 24" xmlns="http://www.w3.org/2000/svg">
 <path d="m13.86 3.8604h-3.72c-4.49 0-8.14 3.65-8.14 8.14 0 4.49 3.65 8.14 8.14 8.14h3.72c4.49 0 8.14-3.65 8.14-8.14 0-4.49-3.65-8.14-8.14-8.14zm-3.72 12.56c-2.44 0-4.42-1.98-4.42-4.42 0-2.44 1.98-4.42 4.42-4.42s4.42 1.98 4.42 4.42c0 2.44-1.98 4.42-4.42 4.42z"/>
</svg>
